Newaita-dark/apps/scalable/kipi-logo.svg

<?xml version="1.0" encoding="UTF-8"?>
<svg xmlns="http://www.w3.org/2000/svg" xmlns:xlink="http://www.w3.org/1999/xlink" width="512pt" height="512pt" viewBox="0 0 512 512" version="1.1">
<defs>
<radialGradient id="radial0" gradientUnits="userSpaceOnUse" cx="450.908936" cy="189.579361" fx="450.908936" fy="189.579361" r="21.166656" gradientTransform="matrix(0.00000278673,-1.250119,-2.250215,-0.00000162462,712.37043,1017.52527)">
<stop offset="0" style="stop-color:rgb(0%,0%,0%);stop-opacity:0.313725;"/>
<stop offset="0.222222" style="stop-color:rgb(0%,0%,0%);stop-opacity:0.27451;"/>
<stop offset="1" style="stop-color:rgb(0%,0%,0%);stop-opacity:0;"/>
</radialGradient>
<radialGradient id="radial1" gradientUnits="userSpaceOnUse" cx="450.908936" cy="189.579361" fx="450.908936" fy="189.579361" r="21.166656" gradientTransform="matrix(-0.00000278673,1.250119,2.250215,0.00000162462,-204.321898,-120.439713)">
<stop offset="0" style="stop-color:rgb(0%,0%,0%);stop-opacity:0.313725;"/>
<stop offset="0.222222" style="stop-color:rgb(0%,0%,0%);stop-opacity:0.27451;"/>
<stop offset="1" style="stop-color:rgb(0%,0%,0%);stop-opacity:0;"/>
</radialGradient>
<radialGradient id="radial2" gradientUnits="userSpaceOnUse" cx="450.908936" cy="189.579361" fx="450.908936" fy="189.579361" r="21.166656" gradientTransform="matrix(-0.00000278673,-1.250119,2.250215,-0.00000162462,-204.321898,1017.52527)">
<stop offset="0" style="stop-color:rgb(0%,0%,0%);stop-opacity:0.313725;"/>
<stop offset="0.222222" style="stop-color:rgb(0%,0%,0%);stop-opacity:0.27451;"/>
<stop offset="1" style="stop-color:rgb(0%,0%,0%);stop-opacity:0;"/>
</radialGradient>
<radialGradient id="radial3" gradientUnits="userSpaceOnUse" cx="450.908936" cy="189.579361" fx="450.908936" fy="189.579361" r="21.166656" gradientTransform="matrix(0.00000278673,1.250119,-2.250215,0.00000162462,712.3704,-120.43972)">
<stop offset="0" style="stop-color:rgb(0%,0%,0%);stop-opacity:0.313725;"/>
<stop offset="0.222222" style="stop-color:rgb(0%,0%,0%);stop-opacity:0.27451;"/>
<stop offset="1" style="stop-color:rgb(0%,0%,0%);stop-opacity:0;"/>
</radialGradient>
<linearGradient id="linear0" gradientUnits="userSpaceOnUse" x1="255.323059" y1="233.5" x2="255.323044" y2="254.666656" gradientTransform="matrix(0.213761,0,0,1.000095,199.446179,215.020539)">
<stop offset="0" style="stop-color:rgb(0%,0%,0%);stop-opacity:0.27451;"/>
<stop offset="1" style="stop-color:rgb(0%,0%,0%);stop-opacity:0;"/>
</linearGradient>
<linearGradient id="linear1" gradientUnits="userSpaceOnUse" x1="254" y1="-168.666672" x2="254" y2="233.5" gradientTransform="matrix(1.000095,0,0,1.000095,0,215.020527)">
<stop offset="0" style="stop-color:rgb(69.019608%,74.509804%,77.254902%);stop-opacity:1;"/>
<stop offset="1" style="stop-color:rgb(47.058824%,56.470588%,61.176471%);stop-opacity:1;"/>
</linearGradient>
<linearGradient id="linear2" gradientUnits="userSpaceOnUse" x1="243.416672" y1="-147.5" x2="243.416672" y2="-62.833332" gradientTransform="matrix(1,0,0,1,-0.0000336784,0)">
<stop offset="0" style="stop-color:rgb(93.72549%,32.54902%,31.372549%);stop-opacity:1;"/>
<stop offset="1" style="stop-color:rgb(89.803922%,45.098039%,45.098039%);stop-opacity:1;"/>
</linearGradient>
<linearGradient id="linear3" gradientUnits="userSpaceOnUse" x1="243.416656" y1="-147.5" x2="243.416656" y2="-62.833336" gradientTransform="matrix(1,0,0,1,116.416672,74.083336)">
<stop offset="0" style="stop-color:rgb(14.901961%,65.098039%,60.392157%);stop-opacity:1;"/>
<stop offset="1" style="stop-color:rgb(30.196078%,71.372549%,67.45098%);stop-opacity:1;"/>
</linearGradient>
<linearGradient id="linear4" gradientUnits="userSpaceOnUse" x1="264.583344" y1="-147.5" x2="264.583344" y2="-62.833336" gradientTransform="matrix(1,0,0,1,-116.416672,74.083336)">
<stop offset="0" style="stop-color:rgb(25.882353%,64.705882%,96.078431%);stop-opacity:1;"/>
<stop offset="1" style="stop-color:rgb(39.215686%,70.980392%,96.470588%);stop-opacity:1;"/>
</linearGradient>
<linearGradient id="linear5" gradientUnits="userSpaceOnUse" x1="275.166687" y1="-147.5" x2="275.166687" y2="-62.833328" gradientTransform="matrix(1,0,0,1,-116.416679,201.083328)">
<stop offset="0" style="stop-color:rgb(100%,79.215686%,15.686275%);stop-opacity:1;"/>
<stop offset="1" style="stop-color:rgb(100%,83.529412%,30.980392%);stop-opacity:1;"/>
</linearGradient>
</defs>
<g id="surface1">
<path style=" stroke:none;fill-rule:nonzero;fill:url(#radial0);" d="M 291.070312 448.542969 L 333.40625 448.542969 L 333.40625 427.375 L 291.070312 427.375 Z M 291.070312 448.542969 "/>
<path style=" stroke:none;fill-rule:nonzero;fill:url(#radial1);" d="M 216.980469 448.542969 L 174.640625 448.542969 L 174.640625 469.710938 L 216.980469 469.710938 Z M 216.980469 448.542969 "/>
<path style=" stroke:none;fill-rule:nonzero;fill:url(#radial2);" d="M 216.980469 448.542969 L 174.640625 448.542969 L 174.640625 427.375 L 216.980469 427.375 Z M 216.980469 448.542969 "/>
<path style=" stroke:none;fill-rule:nonzero;fill:url(#radial3);" d="M 291.070312 448.542969 L 333.40625 448.542969 L 333.40625 469.710938 L 291.070312 469.710938 Z M 291.070312 448.542969 "/>
<path style=" stroke:none;fill-rule:nonzero;fill:url(#linear0);" d="M 216.980469 443.25 L 291.070312 443.25 L 291.070312 469.710938 L 216.980469 469.710938 Z M 216.980469 443.25 "/>
<path style=" stroke:none;fill-rule:nonzero;fill:url(#linear1);" d="M 254.023438 46.335938 C 142.613281 46.335938 52.921875 136.027344 52.921875 247.441406 C 52.921875 358.851562 142.613281 448.542969 254.023438 448.542969 C 269.972656 448.542969 285.476562 446.703125 300.335938 443.222656 C 359.867188 427.375 222.269531 321.53125 306.945312 300.363281 C 391.621094 279.191406 455.125 310.945312 455.125 247.441406 C 455.125 136.027344 365.433594 46.335938 254.023438 46.335938 Z M 254.023438 46.335938 "/>
<path style=" stroke:none;fill-rule:nonzero;fill:rgb(100%,100%,100%);fill-opacity:0.392157;" d="M 254.023438 46.335938 C 142.613281 46.335938 52.921875 136.027344 52.921875 247.441406 C 52.921875 248.324219 52.925781 249.207031 52.9375 250.085938 C 54.347656 139.90625 143.496094 51.628906 254.023438 51.628906 C 364.375 51.628906 453.414062 139.625 455.097656 249.558594 C 455.117188 248.863281 455.125 248.160156 455.125 247.441406 C 455.125 136.027344 365.433594 46.335938 254.023438 46.335938 Z M 278.664062 331.949219 C 276.429688 360.460938 313.046875 402.695312 315.648438 428.304688 C 318.390625 404.980469 280.871094 362.371094 278.664062 331.949219 Z M 278.664062 331.949219 "/>
<path style=" stroke:none;fill-rule:nonzero;fill:rgb(0%,0%,0%);fill-opacity:0.235294;" d="M 455.109375 244.699219 C 453.914062 305.816406 390.816406 274.867188 306.945312 295.835938 C 284.65625 301.410156 277.773438 312.847656 278.636719 326.96875 C 279.457031 314.945312 287.089844 305.324219 306.945312 300.363281 C 391.621094 279.191406 455.125 310.945312 455.125 247.441406 C 455.125 246.523438 455.121094 245.609375 455.109375 244.699219 Z M 52.9375 245.175781 C 52.929688 245.929688 52.921875 246.683594 52.921875 247.441406 C 52.921875 358.851562 142.613281 448.542969 254.023438 448.542969 C 269.972656 448.542969 285.476562 446.703125 300.335938 443.222656 C 312.617188 439.953125 316.503906 432.851562 315.6875 423.457031 C 314.96875 430.601562 310.558594 435.976562 300.335938 438.699219 C 285.476562 442.175781 269.972656 444.015625 254.023438 444.015625 C 143.367188 444.015625 54.140625 355.535156 52.9375 245.175781 Z M 52.9375 245.175781 "/>
<path style=" stroke:none;fill-rule:nonzero;fill:rgb(12.941177%,12.941177%,12.941177%);fill-opacity:1;" d="M 254.023438 44.835938 C 141.808594 44.835938 51.421875 135.222656 51.421875 247.441406 C 51.421875 359.65625 141.808594 450.042969 254.023438 450.042969 C 270.089844 450.042969 285.707031 448.1875 300.679688 444.683594 L 300.699219 444.679688 L 300.722656 444.675781 C 308.433594 442.621094 313.28125 438.953125 315.597656 434.042969 C 317.914062 429.132812 317.679688 423.242188 316.03125 416.820312 C 312.730469 403.96875 303.707031 388.59375 295.539062 373.089844 C 287.375 357.582031 280.121094 341.96875 280.0625 329.378906 C 280.03125 323.082031 281.714844 317.589844 285.90625 312.933594 C 290.101562 308.273438 296.914062 304.414062 307.308594 301.816406 C 349.390625 291.296875 386.242188 293.941406 412.9375 291.269531 C 426.289062 289.933594 437.199219 287.277344 444.859375 280.660156 C 452.523438 274.039062 456.628906 263.566406 456.628906 247.441406 C 456.628906 135.222656 366.238281 44.835938 254.023438 44.835938 Z M 254.023438 47.835938 C 364.628906 47.835938 453.625 136.835938 453.625 247.441406 C 453.625 263.066406 449.789062 272.4375 442.902344 278.386719 C 436.011719 284.339844 425.753906 286.972656 412.640625 288.285156 C 386.414062 290.90625 349.175781 288.257812 306.582031 298.90625 C 295.808594 301.601562 288.398438 305.679688 283.679688 310.925781 C 278.957031 316.167969 277.03125 322.539062 277.0625 329.394531 C 277.128906 343.097656 284.679688 358.902344 292.886719 374.488281 C 301.09375 390.070312 310.011719 405.449219 313.125 417.566406 C 314.679688 423.625 314.765625 428.769531 312.882812 432.761719 C 311 436.753906 307.125 439.859375 299.964844 441.769531 C 285.222656 445.21875 269.847656 447.042969 254.023438 447.042969 C 143.417969 447.042969 54.421875 358.046875 54.421875 247.441406 C 54.421875 136.835938 143.417969 47.835938 254.023438 47.835938 Z M 254.023438 47.835938 "/>
<path style="fill-rule:nonzero;fill:url(#linear2);stroke-width:3;stroke-linecap:square;stroke-linejoin:round;stroke:rgb(12.941177%,12.941177%,12.941177%);stroke-opacity:1;stroke-miterlimit:4;" d="M 253.999182 -147.498634 C 277.379762 -147.498634 296.334983 -128.547318 296.334983 -105.166739 C 296.334983 -81.786159 277.379762 -62.834844 253.999182 -62.834844 C 230.618602 -62.834844 211.667287 -81.786159 211.667287 -105.166739 C 211.667287 -128.547318 230.618602 -147.498634 253.999182 -147.498634 Z M 253.999182 -147.498634 " transform="matrix(1.000095,0,0,1.000095,0,215.020531)"/>
<path style="fill-rule:nonzero;fill:url(#linear3);stroke-width:3;stroke-linecap:square;stroke-linejoin:round;stroke:rgb(12.941177%,12.941177%,12.941177%);stroke-opacity:1;stroke-miterlimit:4;" d="M 370.417752 -73.415864 C 393.798332 -73.415864 412.749647 -54.464549 412.749647 -31.083969 C 412.749647 -7.70339 393.798332 11.251832 370.417752 11.251832 C 347.037172 11.251832 328.081951 -7.70339 328.081951 -31.083969 C 328.081951 -54.464549 347.037172 -73.415864 370.417752 -73.415864 Z M 370.417752 -73.415864 " transform="matrix(1.000095,0,0,1.000095,0,215.020531)"/>
<path style="fill-rule:nonzero;fill:url(#linear4);stroke-width:3;stroke-linecap:square;stroke-linejoin:round;stroke:rgb(12.941177%,12.941177%,12.941177%);stroke-opacity:1;stroke-miterlimit:4;" d="M 137.584518 -73.415864 C 160.965097 -73.415864 179.916413 -54.464549 179.916413 -31.083969 C 179.916413 -7.70339 160.965097 11.251832 137.584518 11.251832 C 114.203938 11.251832 95.248717 -7.70339 95.248717 -31.083969 C 95.248717 -54.464549 114.203938 -73.415864 137.584518 -73.415864 Z M 137.584518 -73.415864 " transform="matrix(1.000095,0,0,1.000095,0,215.020531)"/>
<path style="fill-rule:nonzero;fill:url(#linear5);stroke-width:3;stroke-linecap:square;stroke-linejoin:round;stroke:rgb(12.941177%,12.941177%,12.941177%);stroke-opacity:1;stroke-miterlimit:4;" d="M 137.584518 53.583727 C 160.965097 53.583727 179.916413 72.535042 179.916413 95.915622 C 179.916413 119.296201 160.965097 138.251422 137.584518 138.251422 C 114.203938 138.251422 95.248717 119.296201 95.248717 95.915622 C 95.248717 72.535042 114.203938 53.583727 137.584518 53.583727 Z M 137.584518 53.583727 " transform="matrix(1.000095,0,0,1.000095,0,215.020531)"/>
</g>
</svg>

<svg xmlns="http://www.w3.org/2000/svg" width="512pt" height="512pt" viewBox="0 0 512 512"><defs><radialGradient id="a" gradientUnits="userSpaceOnUse" cx="450.909" cy="189.579" fx="450.909" fy="189.579" r="21.167" gradientTransform="matrix(0 -1.25012 -2.25021 0 712.37 1017.525)"><stop offset="0" stop-opacity=".314"/><stop offset=".222" stop-opacity=".275"/><stop offset="1" stop-opacity="0"/></radialGradient><radialGradient id="b" gradientUnits="userSpaceOnUse" cx="450.909" cy="189.579" fx="450.909" fy="189.579" r="21.167" gradientTransform="matrix(0 1.25012 2.25021 0 -204.322 -120.44)"><stop offset="0" stop-opacity=".314"/><stop offset=".222" stop-opacity=".275"/><stop offset="1" stop-opacity="0"/></radialGradient><radialGradient id="c" gradientUnits="userSpaceOnUse" cx="450.909" cy="189.579" fx="450.909" fy="189.579" r="21.167" gradientTransform="matrix(0 -1.25012 2.25021 0 -204.322 1017.525)"><stop offset="0" stop-opacity=".314"/><stop offset=".222" stop-opacity=".275"/><stop offset="1" stop-opacity="0"/></radialGradient><radialGradient id="d" gradientUnits="userSpaceOnUse" cx="450.909" cy="189.579" fx="450.909" fy="189.579" r="21.167" gradientTransform="matrix(0 1.25012 -2.25021 0 712.37 -120.44)"><stop offset="0" stop-opacity=".314"/><stop offset=".222" stop-opacity=".275"/><stop offset="1" stop-opacity="0"/></radialGradient><linearGradient id="e" gradientUnits="userSpaceOnUse" x1="255.323" y1="233.5" x2="255.323" y2="254.667" gradientTransform="matrix(.21376 0 0 1.0001 199.446 215.02)"><stop offset="0" stop-opacity=".275"/><stop offset="1" stop-opacity="0"/></linearGradient><linearGradient id="f" gradientUnits="userSpaceOnUse" x1="254" y1="-168.667" x2="254" y2="233.5" gradientTransform="matrix(1.0001 0 0 1.0001 0 215.02)"><stop offset="0" stop-color="#b0bec5"/><stop offset="1" stop-color="#78909c"/></linearGradient><linearGradient id="g" gradientUnits="userSpaceOnUse" x1="243.417" y1="-147.5" x2="243.417" y2="-62.833"><stop offset="0" stop-color="#ef5350"/><stop offset="1" stop-color="#e57373"/></linearGradient><linearGradient id="h" gradientUnits="userSpaceOnUse" x1="243.417" y1="-147.5" x2="243.417" y2="-62.833" gradientTransform="translate(116.417 74.083)"><stop offset="0" stop-color="#26a69a"/><stop offset="1" stop-color="#4db6ac"/></linearGradient><linearGradient id="i" gradientUnits="userSpaceOnUse" x1="264.583" y1="-147.5" x2="264.583" y2="-62.833" gradientTransform="translate(-116.417 74.083)"><stop offset="0" stop-color="#42a5f5"/><stop offset="1" stop-color="#64b5f6"/></linearGradient><linearGradient id="j" gradientUnits="userSpaceOnUse" x1="275.167" y1="-147.5" x2="275.167" y2="-62.833" gradientTransform="translate(-116.417 201.083)"><stop offset="0" stop-color="#ffca28"/><stop offset="1" stop-color="#ffd54f"/></linearGradient></defs><path d="M291.07 448.543h42.336v-21.168H291.07zm0 0" fill="url(#a)"/><path d="M216.98 448.543h-42.34v21.168h42.34zm0 0" fill="url(#b)"/><path d="M216.98 448.543h-42.34v-21.168h42.34zm0 0" fill="url(#c)"/><path d="M291.07 448.543h42.336v21.168H291.07zm0 0" fill="url(#d)"/><path d="M216.98 443.25h74.09v26.46h-74.09zm0 0" fill="url(#e)"/><path d="M254.023 46.336c-111.41 0-201.101 89.691-201.101 201.105 0 111.41 89.691 201.102 201.101 201.102 15.95 0 31.454-1.84 46.313-5.32 59.531-15.848-78.066-121.692 6.61-142.86 84.675-21.172 148.179 10.582 148.179-52.922 0-111.414-89.691-201.105-201.102-201.105zm0 0" fill="url(#f)"/><path d="M254.023 46.336c-111.41 0-201.101 89.691-201.101 201.105 0 .883.004 1.766.016 2.645 1.41-110.18 90.558-198.457 201.085-198.457 110.352 0 199.391 87.996 201.075 197.93.02-.696.027-1.399.027-2.118 0-111.414-89.691-201.105-201.102-201.105zm24.641 285.613c-2.234 28.512 34.383 70.746 36.984 96.356 2.743-23.325-34.777-65.934-36.984-96.356zm0 0" fill="#fff" fill-opacity=".392"/><path d="M455.11 244.7c-1.196 61.116-64.294 30.167-148.165 51.136-22.289 5.574-29.172 17.012-28.308 31.133.82-12.024 8.453-21.645 28.308-26.606 84.676-21.172 148.18 10.582 148.18-52.922 0-.918-.004-1.832-.016-2.742zm-402.173.476c-.007.754-.015 1.508-.015 2.265 0 111.41 89.691 201.102 201.101 201.102 15.95 0 31.454-1.84 46.313-5.32 12.281-3.27 16.168-10.371 15.351-19.766-.718 7.145-5.128 12.52-15.351 15.242-14.86 3.477-30.363 5.317-46.313 5.317-110.656 0-199.882-88.48-201.085-198.84zm0 0" fill-opacity=".235"/><path d="M254.023 44.836c-112.214 0-202.601 90.387-202.601 202.605 0 112.215 90.387 202.602 202.601 202.602 16.067 0 31.684-1.856 46.657-5.36l.02-.003.023-.004c7.71-2.055 12.558-5.723 14.875-10.633 2.316-4.91 2.082-10.8.433-17.223-3.3-12.851-12.324-28.226-20.492-43.73-8.164-15.508-15.418-31.121-15.476-43.711-.032-6.297 1.652-11.79 5.843-16.445 4.196-4.66 11.008-8.52 21.403-11.118 42.082-10.52 78.933-7.875 105.628-10.546 13.352-1.336 24.262-3.993 31.922-10.61 7.664-6.62 11.77-17.094 11.77-33.219 0-112.218-90.39-202.605-202.606-202.605zm0 3c110.606 0 199.602 89 199.602 199.605 0 15.625-3.836 24.996-10.723 30.946-6.89 5.953-17.148 8.586-30.261 9.898-26.227 2.621-63.465-.027-106.059 10.621-10.773 2.696-18.184 6.774-22.902 12.02-4.723 5.242-6.649 11.613-6.618 18.469.067 13.703 7.618 29.507 15.825 45.093 8.207 15.582 17.125 30.961 20.238 43.078 1.555 6.059 1.64 11.204-.242 15.196-1.883 3.992-5.758 7.097-12.918 9.008-14.742 3.449-30.117 5.273-45.942 5.273-110.605 0-199.601-88.996-199.601-199.602 0-110.605 88.996-199.605 199.601-199.605zm0 0" fill="#212121"/><path d="M254-147.499c23.38 0 42.335 18.952 42.335 42.332s-18.955 42.332-42.336 42.332c-23.38 0-42.332-18.951-42.332-42.332 0-23.38 18.952-42.332 42.332-42.332zm0 0" transform="matrix(1.0001 0 0 1.0001 0 215.02)" fill="url(#g)" stroke-width="3" stroke-linecap="square" stroke-linejoin="round" stroke="#212121"/><path d="M370.418-73.416c23.38 0 42.332 18.951 42.332 42.332 0 23.38-18.952 42.336-42.332 42.336s-42.336-18.955-42.336-42.336c0-23.38 18.955-42.332 42.336-42.332zm0 0" transform="matrix(1.0001 0 0 1.0001 0 215.02)" fill="url(#h)" stroke-width="3" stroke-linecap="square" stroke-linejoin="round" stroke="#212121"/><path d="M137.585-73.416c23.38 0 42.331 18.951 42.331 42.332 0 23.38-18.95 42.336-42.331 42.336-23.381 0-42.336-18.955-42.336-42.336 0-23.38 18.955-42.332 42.336-42.332zm0 0" transform="matrix(1.0001 0 0 1.0001 0 215.02)" fill="url(#i)" stroke-width="3" stroke-linecap="square" stroke-linejoin="round" stroke="#212121"/><path d="M137.585 53.584c23.38 0 42.331 18.951 42.331 42.332 0 23.38-18.95 42.335-42.331 42.335-23.381 0-42.336-18.955-42.336-42.335 0-23.381 18.955-42.332 42.336-42.332zm0 0" transform="matrix(1.0001 0 0 1.0001 0 215.02)" fill="url(#j)" stroke-width="3" stroke-linecap="square" stroke-linejoin="round" stroke="#212121"/></svg>
